X:1
T:Title
%%score { 1 | 2 }
L:1/8
Q:1/4=100
M:6/8
K:F
V:1 treble nm="Grand Piano"
V:2 bass 
V:1
 A>GF F2 G | F E2- E2 z | [GB]>[^FA][GB] [Ec]2 [EG] | A6 | A>GF F2 G | F E2- E2 z | G>GG G2 G | %7
w: H.~L.~Gilmour * * * *|||||||
 [EG]6 | [GB]>[FA][EG] [Ec]2 [GB] | [FA] [CF]2- [CF]2 z | [DF]>[DF][DF] [DF]2 D | C6 | A>AA B2 A | %13
w: ||||||
 [Fd]2 [Fd] [DFB]2 [B,DG] |[M:7/8] F>EF G3 F |[M:5/8] F-F- F3 |[M:3/4] Ac- c/c/ c3 | Ac- c/A/ F3 | %18
w: |||||
 A[Fd]- [Fd]/[Fd]/ [Fc]3 | [FA][EG]- [EG]4 | Ac- c/c/ c3 | Ac- c/A/ F3 | %22
w: ||||
 [DFG][CFA]- [CFA]/[A,CF]/ [B,EG]3 |[M:5/8] [A,CF][A,CF]- [A,CF]3- | [A,CF] z z z2 |] %25
w: |||
V:2
 [F,CF]>[F,B,C][F,A,C] [F,A,C]2 [F,B,C] | [G,B,C] [G,B,C]2- [G,B,C]2 z | %2
 [C,C]>[C,C][C,C] [C,G,]2 [C,C] | [F,CF]6 | [F,CF]>[F,B,C][F,A,C] [F,A,C]2 [F,B,C] | %5
 [G,C] [G,C]2- [G,C]2 z | [G,CD]>[G,CD][G,CE] [G,DF]2 [G,CF] | [C,C]6 | %8
 [C,C]>[C,C][C,C] [C,G,]2 [C,C] | [F,C] [F,A,]2- [F,A,]2 z | %10
 [B,,B,]>[B,,B,][B,,B,] [B,,B,]2 [B,,F,B,] | [F,A,]6 | [F,CF]>[F,CF][F,CF] [F,DF]2 [F,CF] | %13
 [B,,B,]2 [B,,B,] B,,2 B,, |[M:7/8] [C,A,C]>[C,G,C][C,A,C] [C,B,C]3 [F,A,C] | %15
[M:5/8] [F,A,C]-[F,A,C]- [F,A,C]3 |[M:3/4] [F,CF][F,A,F]- [F,A,F]/[F,A,F]/ [F,A,F]3 | %17
 [F,CF][F,A,F]- [F,A,F]/[F,CF]/ [F,A,C]3 | [F,CF][B,,B,]- [B,,B,]/[B,,B,]/ [F,A,]3 | %19
 [F,C][C,C]- [C,C]4 | [F,CF][F,A,F]- [F,A,F]/[F,A,F]/ [F,A,F]3 | %21
 [F,CF][F,A,F]- [F,A,F]/[F,CF]/ [F,A,C]3 | B,,C,- C,/C,/ C,3 |[M:5/8] F,F,- F,3- | F, z z z2 |] %25

